#src/img/svg/vk.svg

<svg width="24" height="24" viewBox="0 0 24 24" fill="none" xmlns="http://www.w3.org/2000/svg">
<g clip-path="url(#clip0_10112_31)">
<path fill-rule="evenodd" clip-rule="evenodd" d="M21.3625 14.7577C21.3625 14.7577 23.3029 16.6741 23.7829 17.5609C23.7922 17.5736 23.7995 17.5878 23.8045 17.6029C24.0001 17.9305 24.0481 18.1873 23.9521 18.3769C23.7901 18.6901 23.2417 18.8473 23.0557 18.8605H19.6261C19.3873 18.8605 18.8905 18.7981 18.2857 18.3805C17.8237 18.0577 17.3641 17.5261 16.9189 17.0065C16.2541 16.2349 15.6793 15.5653 15.0973 15.5653C15.0238 15.5651 14.9508 15.5773 14.8813 15.6013C14.4409 15.7405 13.8817 16.3681 13.8817 18.0397C13.8817 18.5629 13.4689 18.8605 13.1797 18.8605H11.6089C11.0737 18.8605 8.28731 18.6733 5.81651 16.0681C2.78891 12.8785 0.0697081 6.48005 0.0433081 6.42365C-0.125892 6.00965 0.229308 5.78405 0.613308 5.78405H4.07651C4.54091 5.78405 4.69211 6.06485 4.79771 6.31685C4.92011 6.60605 5.37371 7.76285 6.11771 9.06245C7.32251 11.1768 8.06291 12.0373 8.65451 12.0373C8.76566 12.0376 8.87492 12.0086 8.97131 11.9533C9.74411 11.5285 9.60011 8.76845 9.56411 8.19965C9.56411 8.08925 9.56291 6.96725 9.16691 6.42485C8.88371 6.03605 8.40131 5.88485 8.10971 5.82965C8.18771 5.71685 8.35331 5.54405 8.56571 5.44205C9.09491 5.17805 10.0513 5.13965 11.0005 5.13965H11.5273C12.5569 5.15405 12.8233 5.22005 13.1977 5.31485C13.9513 5.49485 13.9657 5.98325 13.8997 7.64645C13.8805 8.12165 13.8601 8.65685 13.8601 9.28685C13.8601 9.42125 13.8541 9.57125 13.8541 9.72365C13.8313 10.5768 13.8013 11.5381 14.4037 11.9329C14.4818 11.9815 14.5721 12.0073 14.6641 12.0072C14.8729 12.0072 15.4981 12.0072 17.1937 9.09725C17.9377 7.81205 18.5137 6.29645 18.5533 6.18245C18.5869 6.11885 18.6877 5.94005 18.8101 5.86805C18.8972 5.82172 18.9947 5.79858 19.0933 5.80085H23.1673C23.6113 5.80085 23.9125 5.86805 23.9713 6.03605C24.0697 6.30845 23.9521 7.14005 22.0921 9.65525C21.7789 10.074 21.5041 10.4365 21.2629 10.7533C19.5769 12.9661 19.5769 13.0777 21.3625 14.7577Z" fill="white"/>
</g>
<defs>
<clipPath id="clip0_10112_31">
<rect width="24" height="24" fill="white"/>
</clipPath>
</defs>
</svg>

<svg width="24" height="24" fill="none" xmlns="http://www.w3.org/2000/svg"><g clip-path="url(#clip0_10112_31)"><path fill-rule="evenodd" clip-rule="evenodd" d="M21.363 14.758s1.94 1.916 2.42 2.803c.01.013.016.027.021.042.196.327.244.584.148.774-.162.313-.71.47-.896.483h-3.43c-.239 0-.736-.062-1.34-.48-.462-.322-.922-.854-1.367-1.373-.665-.772-1.24-1.442-1.822-1.442a.656.656 0 00-.216.036c-.44.14-1 .767-1 2.439 0 .523-.412.82-.701.82h-1.571c-.535 0-3.322-.187-5.792-2.792C2.789 12.878.07 6.48.043 6.424c-.169-.414.186-.64.57-.64h3.464c.464 0 .615.28.72.533.123.289.577 1.446 1.32 2.745 1.206 2.115 1.946 2.975 2.538 2.975.11 0 .22-.028.316-.084.773-.425.63-3.185.593-3.753 0-.11-.001-1.233-.397-1.775-.283-.389-.766-.54-1.057-.595.078-.113.243-.286.456-.388.529-.264 1.485-.302 2.434-.302h.527c1.03.014 1.296.08 1.67.175.754.18.769.668.703 2.331-.02.476-.04 1.01-.04 1.64 0 .135-.006.285-.006.438-.023.853-.053 1.814.55 2.209a.492.492 0 00.26.074c.209 0 .834 0 2.53-2.91.744-1.285 1.32-2.8 1.36-2.915.033-.063.134-.242.256-.314a.575.575 0 01.283-.067h4.074c.444 0 .745.067.804.235.099.272-.019 1.104-1.879 3.62-.313.418-.588.78-.83 1.097-1.685 2.213-1.685 2.325.1 4.005z" fill="#fff"/></g><defs><clipPath id="clip0_10112_31"><path fill="#fff" d="M0 0h24v24H0z"/></clipPath></defs></svg>
